src/assets/flags/is.svg

<?xml version="1.0" encoding="UTF-8"?>
<svg xmlns="http://www.w3.org/2000/svg" xmlns:xlink="http://www.w3.org/1999/xlink" width="25px" height="px" viewBox="0 0 25 19" version="1.1">
<g id="surface1">
<rect x="0" y="0" width="25" height="19" style="fill:rgb(0%,21.960784%,59.215689%);fill-opacity:1;stroke:none;"/>
<path style=" stroke:none;fill-rule:evenodd;fill:rgb(100%,100%,100%);fill-opacity:1;" d="M 0 7.390625 L 7.292969 7.390625 L 7.292969 0 L 11.457031 0 L 11.457031 7.390625 L 26.042969 7.390625 L 26.042969 11.609375 L 11.457031 11.609375 L 11.457031 19 L 7.292969 19 L 7.292969 11.609375 L 0 11.609375 Z M 0 7.390625 "/>
<path style=" stroke:none;fill-rule:evenodd;fill:rgb(84.313726%,15.686275%,15.686275%);fill-opacity:1;" d="M 0 8.441406 L 8.332031 8.441406 L 8.332031 0 L 10.417969 0 L 10.417969 8.441406 L 26.042969 8.441406 L 26.042969 10.558594 L 10.417969 10.558594 L 10.417969 19 L 8.332031 19 L 8.332031 10.558594 L 0 10.558594 Z M 0 8.441406 "/>
</g>
</svg>

<svg xmlns="http://www.w3.org/2000/svg" width="25" height="px" viewBox="0 0 25 19"><path d="M0 0h25v19H0z" style="fill:#003897;fill-opacity:1;stroke:none"/><path d="M0 7.39h7.293V0h4.164v7.39h14.586v4.22H11.457V19H7.293v-7.39H0Zm0 0" style="stroke:none;fill-rule:evenodd;fill:#fff;fill-opacity:1"/><path d="M0 8.441h8.332V0h2.086v8.441h15.625v2.118H10.418V19H8.332v-8.441H0Zm0 0" style="stroke:none;fill-rule:evenodd;fill:#d72828;fill-opacity:1"/></svg>
